public/images/brands/tailadmin.svg

<svg fill="none" height="30" viewBox="0 0 160 30" width="160" xmlns="http://www.w3.org/2000/svg" xmlns:xlink="http://www.w3.org/1999/xlink"><filter id="a" color-interpolation-filters="sRGB" filterUnits="userSpaceOnUse" height="18.842" width="5.06219" x="6.65582" y="5.62451"><feFlood flood-opacity="0" result="BackgroundImageFix"/><feColorMatrix in="SourceAlpha" result="hardAlpha" type="matrix" values="0 0 0 0 0 0 0 0 0 0 0 0 0 0 0 0 0 0 127 0"/><feOffset dy=".5"/><feGaussianBlur stdDeviation=".5"/><feComposite in2="hardAlpha" operator="out"/><feColorMatrix type="matrix" values="0 0 0 0 0 0 0 0 0 0 0 0 0 0 0 0 0 0 0.12 0"/><feBlend in2="BackgroundImageFix" mode="normal" result="effect1_dropShadow_2130_41"/><feBlend in="SourceGraphic" in2="effect1_dropShadow_2130_41" mode="normal" result="shape"/></filter><filter id="b" color-interpolation-filters="sRGB" filterUnits="userSpaceOnUse" height="12.7178" width="5.06219" x="12.3971" y="11.7485"><feFlood flood-opacity="0" result="BackgroundImageFix"/><feColorMatrix in="SourceAlpha" result="hardAlpha" type="matrix" values="0 0 0 0 0 0 0 0 0 0 0 0 0 0 0 0 0 0 127 0"/><feOffset dy=".5"/><feGaussianBlur stdDeviation=".5"/><feComposite in2="hardAlpha" operator="out"/><feColorMatrix type="matrix" values="0 0 0 0 0 0 0 0 0 0 0 0 0 0 0 0 0 0 0.12 0"/><feBlend in2="BackgroundImageFix" mode="normal" result="effect1_dropShadow_2130_41"/><feBlend in="SourceGraphic" in2="effect1_dropShadow_2130_41" mode="normal" result="shape"/></filter><filter id="c" color-interpolation-filters="sRGB" filterUnits="userSpaceOnUse" height="16.5454" width="5.06229" x="18.1384" y="7.92065"><feFlood flood-opacity="0" result="BackgroundImageFix"/><feColorMatrix in="SourceAlpha" result="hardAlpha" type="matrix" values="0 0 0 0 0 0 0 0 0 0 0 0 0 0 0 0 0 0 127 0"/><feOffset dy=".5"/><feGaussianBlur stdDeviation=".5"/><feComposite in2="hardAlpha" operator="out"/><feColorMatrix type="matrix" values="0 0 0 0 0 0 0 0 0 0 0 0 0 0 0 0 0 0 0.12 0"/><feBlend in2="BackgroundImageFix" mode="normal" result="effect1_dropShadow_2130_41"/><feBlend in="SourceGraphic" in2="effect1_dropShadow_2130_41" mode="normal" result="shape"/></filter><clipPath id="d"><path d="m0 0h160v29.0909h-160z"/></clipPath><g clip-path="url(#d)"><g fill="#fff"><path d="m40 8.34173h5.7066v16.34667h3.4134v-16.34667h5.7066v-3.14666h-14.8266z"/><path d="m58.6363 25.035c2.0532 0 3.84-.9334 4.4-2.2934l.24 1.9467h2.8532v-8c0-3.6533-2.1866-5.5733-5.7332-5.5733-3.5734 0-5.92 1.8666-5.92 4.72h2.7732c0-1.3866 1.0668-2.1866 2.9868-2.1866 1.6533 0 2.72.72 2.72 2.5066v.2933l-3.9468.2933c-3.12.24-4.88 1.76-4.88 4.1868 0 2.4799 1.7068 4.1066 4.5068 4.1066zm1.0666-2.4534c-1.4666 0-2.2666-.5866-2.2666-1.7866 0-1.0667.7733-1.7334 2.8-1.92l2.7466-.2134v.6934c0 2.0266-1.28 3.2266-3.28 3.2266z"/><path d="m70.9523 8.87507c1.0667 0 1.9467-.88 1.9467-1.97333s-.88-1.94666-1.9467-1.94666c-1.12 0-2 .85333-2 1.94666s.88 1.97333 2 1.97333zm-1.6267 15.81333h3.2534v-13.1733h-3.2534z"/><path d="m79.2202 24.6883v-19.83991h-3.2267v19.83991z"/><path d="m84.7929 24.6884 1.5734-4.5067h7.2801l1.5736 4.5067h3.6l-7.04-19.49333h-3.4937l-7.04 19.49333zm4.8-13.68c.1867-.5333.3466-1.11996.4266-1.49332.0534.4.24.98662.4 1.49332l2.2405 6.2933h-5.2805z"/><path d="m105.598 25.0351c2 0 3.707-.88 4.507-2.4l.213 2.0532h2.987v-19.83991h-3.227v8.34671c-.826-1.3067-2.453-2.08-4.293-2.08-3.973 0-6.3732 2.9333-6.3732 7.04 0 4.08 2.3732 6.88 6.1862 6.88zm.72-2.9868c-2.266 0-3.653-1.6532-3.653-3.9999s1.387-4.0267 3.653-4.0267c2.267 0 3.734 1.6534 3.734 4.0267s-1.467 3.9999-3.734 3.9999z"/><path d="m119.949 24.6883v-7.4667c0-2.1332 1.253-3.1466 2.8-3.1466 1.546 0 2.533.9866 2.533 2.8266v7.7867h3.253v-7.4667c0-2.16 1.2-3.1732 2.774-3.1732 1.546 0 2.56.9866 2.56 2.88v7.7599h3.226v-8.6133c0-3.04-1.76-4.96-4.96-4.96-2 0-3.546.9866-4.213 2.5066-.693-1.52-2.08-2.5066-4.08-2.5066-1.893 0-3.227.8534-3.893 1.9466l-.267-1.5466h-2.987v13.1733z"/><path d="m141.915 8.87507c1.068 0 1.948-.88 1.948-1.97333s-.88-1.94666-1.948-1.94666c-1.12 0-2 .85333-2 1.94666s.88 1.97333 2 1.97333zm-1.626 15.81333h3.254v-13.1733h-3.254z"/><path d="m150.157 24.6883v-7.0933c0-2.1334 1.227-3.52 3.227-3.52 1.68 0 2.773 1.0666 2.773 3.28v7.3333h3.253v-8.1067c0-3.4132-1.706-5.4666-5.013-5.4666-1.787 0-3.387.7734-4.213 2.1066l-.267-1.7066h-3.013v13.1733z"/></g><path d="m0 7.6555c0-4.22802 3.42748-7.6555 7.6555-7.6555h13.7799c4.2281 0 7.6555 3.42748 7.6555 7.6555v13.7799c0 4.2281-3.4274 7.6555-7.6555 7.6555h-13.7799c-4.22802 0-7.6555-3.4274-7.6555-7.6555z" fill="#3c50e0"/><g filter="url(#a)"><path d="m7.65582 7.65561c0-.8456.68549-1.5311 1.5311-1.5311.84568 0 1.53108.6855 1.53108 1.5311v13.77989c0 .8456-.6854 1.5311-1.53108 1.5311-.84561 0-1.5311-.6855-1.5311-1.5311z" fill="#fff"/></g><g filter="url(#b)" opacity=".9"><path d="m13.3971 13.7796c0-.8456.6855-1.5311 1.5311-1.5311s1.5311.6855 1.5311 1.5311v7.6555c0 .8456-.6855 1.5312-1.5311 1.5312s-1.5311-.6856-1.5311-1.5312z" fill="#fff"/></g><g filter="url(#c)" opacity=".7"><path d="m19.1384 9.95175c0-.84564.6855-1.5311 1.5311-1.5311s1.5311.68546 1.5311 1.5311v11.48325c0 .8456-.6855 1.5311-1.5311 1.5311s-1.5311-.6855-1.5311-1.5311z" fill="#fff"/></g></g></svg>

<svg width="160" height="30" viewBox="0 0 160 30" fill="none" xmlns="http://www.w3.org/2000/svg">
<g clip-path="url(#clip0_2130_41)">
<path d="M40 8.34173H45.7066V24.6884H49.12V8.34173H54.8266V5.19507H40V8.34173Z" fill="white"/>
<path d="M58.6363 25.035C60.6895 25.035 62.4763 24.1016 63.0363 22.7416L63.2763 24.6883H66.1295V16.6883C66.1295 13.035 63.9429 11.115 60.3963 11.115C56.8229 11.115 54.4763 12.9816 54.4763 15.835H57.2495C57.2495 14.4484 58.3163 13.6484 60.2363 13.6484C61.8896 13.6484 62.9563 14.3684 62.9563 16.155V16.4483L59.0095 16.7416C55.8895 16.9816 54.1295 18.5016 54.1295 20.9284C54.1295 23.4083 55.8363 25.035 58.6363 25.035ZM59.7029 22.5816C58.2363 22.5816 57.4363 21.995 57.4363 20.795C57.4363 19.7283 58.2096 19.0616 60.2363 18.875L62.9829 18.6616V19.355C62.9829 21.3816 61.7029 22.5816 59.7029 22.5816Z" fill="white"/>
<path d="M70.9523 8.87507C72.019 8.87507 72.899 7.99507 72.899 6.90174C72.899 5.80841 72.019 4.95508 70.9523 4.95508C69.8323 4.95508 68.9523 5.80841 68.9523 6.90174C68.9523 7.99507 69.8323 8.87507 70.9523 8.87507ZM69.3256 24.6884H72.579V11.5151H69.3256V24.6884Z" fill="white"/>
<path d="M79.2202 24.6883V4.84839H75.9935V24.6883H79.2202Z" fill="white"/>
<path d="M84.7929 24.6884L86.3663 20.1817H93.6464L95.22 24.6884H98.82L91.78 5.19507H88.2863L81.2463 24.6884H84.7929ZM89.5929 11.0084C89.7796 10.4751 89.9395 9.88844 90.0195 9.51508C90.0729 9.91508 90.2595 10.5017 90.4195 11.0084L92.66 17.3017H87.3795L89.5929 11.0084Z" fill="white"/>
<path d="M105.598 25.0351C107.598 25.0351 109.305 24.1551 110.105 22.6351L110.318 24.6883H113.305V4.84839H110.078V13.1951C109.252 11.8884 107.625 11.1151 105.785 11.1151C101.812 11.1151 99.4118 14.0484 99.4118 18.1551C99.4118 22.2351 101.785 25.0351 105.598 25.0351ZM106.318 22.0483C104.052 22.0483 102.665 20.3951 102.665 18.0484C102.665 15.7017 104.052 14.0217 106.318 14.0217C108.585 14.0217 110.052 15.6751 110.052 18.0484C110.052 20.4217 108.585 22.0483 106.318 22.0483Z" fill="white"/>
<path d="M119.949 24.6883V17.2216C119.949 15.0884 121.202 14.075 122.749 14.075C124.295 14.075 125.282 15.0616 125.282 16.9016V24.6883H128.535V17.2216C128.535 15.0616 129.735 14.0484 131.309 14.0484C132.855 14.0484 133.869 15.035 133.869 16.9284V24.6883H137.095V16.075C137.095 13.035 135.335 11.115 132.135 11.115C130.135 11.115 128.589 12.1016 127.922 13.6216C127.229 12.1016 125.842 11.115 123.842 11.115C121.949 11.115 120.615 11.9684 119.949 13.0616L119.682 11.515H116.695V24.6883H119.949Z" fill="white"/>
<path d="M141.915 8.87507C142.983 8.87507 143.863 7.99507 143.863 6.90174C143.863 5.80841 142.983 4.95508 141.915 4.95508C140.795 4.95508 139.915 5.80841 139.915 6.90174C139.915 7.99507 140.795 8.87507 141.915 8.87507ZM140.289 24.6884H143.543V11.5151H140.289V24.6884Z" fill="white"/>
<path d="M150.157 24.6883V17.595C150.157 15.4616 151.384 14.075 153.384 14.075C155.064 14.075 156.157 15.1416 156.157 17.355V24.6883H159.41V16.5816C159.41 13.1684 157.704 11.115 154.397 11.115C152.61 11.115 151.01 11.8884 150.184 13.2216L149.917 11.515H146.904V24.6883H150.157Z" fill="white"/>
<path d="M0 7.6555C0 3.42748 3.42748 0 7.6555 0H21.4354C25.6635 0 29.0909 3.42748 29.0909 7.6555V21.4354C29.0909 25.6635 25.6635 29.0909 21.4354 29.0909H7.6555C3.42748 29.0909 0 25.6635 0 21.4354V7.6555Z" fill="#3C50E0"/>
<g filter="url(#filter0_d_2130_41)">
<path d="M7.65582 7.65561C7.65582 6.81001 8.34131 6.12451 9.18692 6.12451C10.0326 6.12451 10.718 6.81001 10.718 7.65561V21.4355C10.718 22.2811 10.0326 22.9666 9.18692 22.9666C8.34131 22.9666 7.65582 22.2811 7.65582 21.4355V7.65561Z" fill="white"/>
</g>
<g opacity="0.9" filter="url(#filter1_d_2130_41)">
<path d="M13.3971 13.7796C13.3971 12.934 14.0826 12.2485 14.9282 12.2485C15.7738 12.2485 16.4593 12.934 16.4593 13.7796V21.4351C16.4593 22.2807 15.7738 22.9663 14.9282 22.9663C14.0826 22.9663 13.3971 22.2807 13.3971 21.4351V13.7796Z" fill="white"/>
</g>
<g opacity="0.7" filter="url(#filter2_d_2130_41)">
<path d="M19.1384 9.95175C19.1384 9.10611 19.8239 8.42065 20.6695 8.42065C21.5151 8.42065 22.2006 9.10611 22.2006 9.95175V21.435C22.2006 22.2806 21.5151 22.9661 20.6695 22.9661C19.8239 22.9661 19.1384 22.2806 19.1384 21.435V9.95175Z" fill="white"/>
</g>
</g>
<defs>
<filter id="filter0_d_2130_41" x="6.65582" y="5.62451" width="5.06219" height="18.842" filterUnits="userSpaceOnUse" color-interpolation-filters="sRGB">
<feFlood flood-opacity="0" result="BackgroundImageFix"/>
<feColorMatrix in="SourceAlpha" type="matrix" values="0 0 0 0 0 0 0 0 0 0 0 0 0 0 0 0 0 0 127 0" result="hardAlpha"/>
<feOffset dy="0.5"/>
<feGaussianBlur stdDeviation="0.5"/>
<feComposite in2="hardAlpha" operator="out"/>
<feColorMatrix type="matrix" values="0 0 0 0 0 0 0 0 0 0 0 0 0 0 0 0 0 0 0.12 0"/>
<feBlend mode="normal" in2="BackgroundImageFix" result="effect1_dropShadow_2130_41"/>
<feBlend mode="normal" in="SourceGraphic" in2="effect1_dropShadow_2130_41" result="shape"/>
</filter>
<filter id="filter1_d_2130_41" x="12.3971" y="11.7485" width="5.06219" height="12.7178" filterUnits="userSpaceOnUse" color-interpolation-filters="sRGB">
<feFlood flood-opacity="0" result="BackgroundImageFix"/>
<feColorMatrix in="SourceAlpha" type="matrix" values="0 0 0 0 0 0 0 0 0 0 0 0 0 0 0 0 0 0 127 0" result="hardAlpha"/>
<feOffset dy="0.5"/>
<feGaussianBlur stdDeviation="0.5"/>
<feComposite in2="hardAlpha" operator="out"/>
<feColorMatrix type="matrix" values="0 0 0 0 0 0 0 0 0 0 0 0 0 0 0 0 0 0 0.12 0"/>
<feBlend mode="normal" in2="BackgroundImageFix" result="effect1_dropShadow_2130_41"/>
<feBlend mode="normal" in="SourceGraphic" in2="effect1_dropShadow_2130_41" result="shape"/>
</filter>
<filter id="filter2_d_2130_41" x="18.1384" y="7.92065" width="5.06229" height="16.5454" filterUnits="userSpaceOnUse" color-interpolation-filters="sRGB">
<feFlood flood-opacity="0" result="BackgroundImageFix"/>
<feColorMatrix in="SourceAlpha" type="matrix" values="0 0 0 0 0 0 0 0 0 0 0 0 0 0 0 0 0 0 127 0" result="hardAlpha"/>
<feOffset dy="0.5"/>
<feGaussianBlur stdDeviation="0.5"/>
<feComposite in2="hardAlpha" operator="out"/>
<feColorMatrix type="matrix" values="0 0 0 0 0 0 0 0 0 0 0 0 0 0 0 0 0 0 0.12 0"/>
<feBlend mode="normal" in2="BackgroundImageFix" result="effect1_dropShadow_2130_41"/>
<feBlend mode="normal" in="SourceGraphic" in2="effect1_dropShadow_2130_41" result="shape"/>
</filter>
<clipPath id="clip0_2130_41">
<rect width="160" height="29.0909" fill="white"/>
</clipPath>
</defs>
</svg>
